X:1
T:Waltz in E Minor
T:Waltz in E Minor
T:Ferdinando Carulli
T:Brett Sayles www.GoodFight.net
C:Ferdinando Carulli
%%score { ( 1 2 ) | ( 3 4 ) }
L:1/8
Q:1/4=72
M:3/8
K:G
V:1 treble-8 nm="Guitar" snm="Guit."
V:2 treble-8 
V:3 tab stafflines=6 strings=E2,A2,D3,G3,B3,E4 nostems 
V:4 tab stafflines=6 strings=E2,A2,D3,G3,B3,E4 nostems 
V:1
 e/B/G/B/e/B/ | e/B/G/B/e/B/ | f/B/g/B/f/B/ | g/B/f/B/g/B/ | e/B/G/B/e/B/ | e/B/G/B/e/B/ | %6
 f/B/g/B/f/B/ | [EGBe]2 z :: ^D/B/B,/B/D/B/ | E/B/G/B/e/B/ | f/B/g/B/f/B/ | g/B/f/B/g/B/ | %12
 ^D/B/B,/B/D/B/ | E/B/G/B/e/B/ | f/B/g/B/f/B/ | [EGBe]2 z!fine! :: [GB][GB][Ac] | d/B/D/B/d/B/ | %18
 c/A/D/A/c/A/ | B/G/D/G/B,/G/ | [GB][GB][Ac] | d/B/D/B/d/B/ | c/A/D/A/c/A/ | [G,G]2 z :: %24
 d/D/d/D/[^ce]/D/ | [cf]/D/[cf]/D/[Bg]/D/ | c/A/D/A/c/A/ | B/G/D/G/B/G/ | d/D/d/D/[^ce]/D/ | %29
 [cf]/D/[cf]/D/[Bg]/D/ | c/A/D/A/c/A/ | [G,G]3!D.C.! :| %32
V:2
 E3 | E3 | ^D3 | E3 | E3 | E3 | ^D3 | x3 :: ^DB,D | E G2 | ^D3 | E3 | ^DB,D | E G2 | ^D3 | x3 :: %16
 G,3 | d D2 | c D2 | BDB, | G,3 | d D2 | cD/ z/ z | x3 :: z/ DDD/ | z/ DDD/ | z D2 | z D2 | %28
 z/ DDD/ | z/ DDD/ | z D2 | x3 :| %32
V:3
 !1!E/ !2!B,/ !3!G,/ !2!B,/ !1!E/ !2!B,/ | !1!E/ !2!B,/ !3!G,/ !2!B,/ !1!E/ !2!B,/ | %2
 !1!F/ !2!B,/ !1!G/ !2!B,/ !1!F/ !2!B,/ | !1!G/ !2!B,/ !1!F/ !2!B,/ !1!G/ !2!B,/ | %4
 !1!E/ !2!B,/ !3!G,/ !2!B,/ !1!E/ !2!B,/ | !1!E/ !2!B,/ !3!G,/ !2!B,/ !1!E/ !2!B,/ | %6
 !1!F/ !2!B,/ !1!G/ !2!B,/ !1!F/ !2!B,/ | [!4!E,!3!G,!2!B,!1!E]2 x :: %8
 !4!^D,/ !2!B,/ !5!B,,/ !2!B,/ !4!D,/ !2!B,/ | !4!E,/ !2!B,/ !3!G,/ !2!B,/ !1!E/ !2!B,/ | %10
 !1!F/ !2!B,/ !1!G/ !2!B,/ !1!F/ !2!B,/ | !1!G/ !2!B,/ !1!F/ !2!B,/ !1!G/ !2!B,/ | %12
 !4!^D,/ !2!B,/ !5!B,,/ !2!B,/ !4!D,/ !2!B,/ | !4!E,/ !2!B,/ !3!G,/ !2!B,/ !1!E/ !2!B,/ | %14
 !1!F/ !2!B,/ !1!G/ !2!B,/ !1!F/ !2!B,/ | [!4!E,!3!G,!2!B,!1!E]2 x :: %16
 [!3!G,!2!B,] [!3!G,!2!B,] [!3!A,!2!C] | !2!D/ !3!B,/ !4!D,/ !3!B,/ !2!D/ !3!B,/ | %18
 !2!C/ !3!A,/ !4!D,/ !3!A,/ !2!C/ !3!A,/ | !2!B,/ !3!G,/ !4!D,/ !3!G,/ !5!B,,/ !3!G,/ | %20
 [!3!G,!2!B,] [!3!G,!2!B,] [!3!A,!2!C] | !2!D/ !3!B,/ !4!D,/ !3!B,/ !2!D/ !3!B,/ | %22
 !2!C/ !3!A,/ !4!D,/ !3!A,/ !2!C/ !3!A,/ | [!6!G,,!3!G,]2 x :: %24
 !2!D/ !4!D,/ !2!D/ !4!D,/ [!2!^C!1!E]/ !4!D,/ | %25
 [!2!C!1!F]/ !4!D,/ [!2!C!1!F]/ !4!D,/ [!2!B,!1!G]/ !4!D,/ | %26
 !2!C/ !3!A,/ !4!D,/ !3!A,/ !2!C/ !3!A,/ | !2!B,/ !3!G,/ !4!D,/ !3!G,/ !2!B,/ !3!G,/ | %28
 !2!D/ !4!D,/ !2!D/ !4!D,/ [!2!^C!1!E]/ !4!D,/ | %29
 [!2!C!1!F]/ !4!D,/ [!2!C!1!F]/ !4!D,/ [!2!B,!1!G]/ !4!D,/ | %30
 !2!C/ !3!A,/ !4!D,/ !3!A,/ !2!C/ !3!A,/ | [!6!G,,!3!G,]3 :| %32
V:4
 !4!E,3 | !4!E,3 | !4!^D,3 | !4!E,3 | !4!E,3 | !4!E,3 | !4!^D,3 | x3 :: !5!x !6!x !5!x | %9
 !5!x !4!x2 | !4!^D,3 | !4!E,3 | !5!x !6!x !5!x | !5!x !4!x2 | !4!^D,3 | x3 :: !6!G,,3 | %17
 !3!x !5!x2 | !3!x !5!x2 | !3!x !5!x !6!x | !6!G,,3 | !3!x !5!x2 | !3!x !5!x/ x/ x | x3 :: %24
 x/ !5!x !5!x !5!x/ | x/ !5!x !5!x !5!x/ | x !5!x2 | x !5!x2 | x/ !5!x !5!x !5!x/ | %29
 x/ !5!x !5!x !5!x/ | x !5!x2 | x3 :| %32

